X:1
T:Red Barn
M:6/8
L:1/8
S: Jim McKinney <goldgrif:wdl.net> tradtunes 2004-2-23
K:G
"G"G,B,D G2 B|AGF G2 B|ded "C"cBA|"D"GFE DB,A,|!
"G"G,B,D G2 B|AGF G2 g|"C"fed "D"cBA|"G"G3 G3:|!
|:"G"g2 g "D"f2 f|"C"efe "G"d2 B|"Am"cAF "G"DFA|"C"edB "D"G2 d|!
"G"gag "D"fgf|"C"efe "G"ded|"C"cAF "D"DEF|"G"G3 G3:|
